X: 100403
T: THE ROCKET HORNPIPE
R: hornpipe, reel
B: K\"ohler's Violin Repository, v.3, 1885 p.262 #2
F: http://www.archive.org/details/klersviolinrepos03rugg
Z: 2012 John Chambers <jc:trillian.mit.edu>
M: C|
L: 1/8
K: F
((3ucde) |\
f2F2 F2{a}g^f | g2G2 G2ga | bagf efga | gec2 c2de |
f2F2 F2{a}g^f | g2G2 G2ga | bagf efge | f2f2 f2 :||: (ucB) | Afcf
afcA | Bfdf bfdB | Afcf afcB | A2G2 G2(cB) |
Afcf afcA | Bfdf bfdB | bagf afgd | [f2A2][f2A2] [f2A2] :|

%%sep 2 1 500

